X:57
M:4/4
L:1/4
K:C
G2 E C | A3/2 G/ G2 | (F3/2 G/) A B | c2 G z | E2 E E | F3/2 F/ A2 | G2 ^F ^F | G2 z2 | c2 B A | G3/2 F/ E2 | c2 d/c/ B/A/ | G2 E z | !sintro!(G e) e c | c A2 F | E2 D3/2 C/ | C4 !eintro!|]
